saas-app-landing-page/public/images/socials/x.svg

<svg width="24" height="24" viewBox="0 0 24 24" fill="none" xmlns="http://www.w3.org/2000/svg">
    <path d="M18.9014 0.75H22.5816L14.5415 9.96308L24 22.5H16.5941L10.7935 14.8964L4.15631 22.5H0.473926L9.07356 12.6456L0 0.75H7.59394L12.8372 7.69996L18.9014 0.75ZM17.6098 20.2915H19.649L6.48589 2.84246H4.29759L17.6098 20.2915Z"
          fill="#EAEDFF"/>
</svg>

<?xml version="1.0" encoding="UTF-8"?>
<svg xmlns="http://www.w3.org/2000/svg" version="1.1" viewBox="0 0 24 24">
  <defs>
    <style>
      .cls-1 {
        fill: #5b5b5b;
      }
    </style>
  </defs>
  <!-- Generator: Adobe Illustrator 28.7.0, SVG Export Plug-In . SVG Version: 1.2.0 Build 136)  -->
  <g>
    <g id="_레이어_1" data-name="레이어_1">
      <path class="cls-1" d="M18.9.8h3.7l-8,9.2,9.5,12.5h-7.4l-5.8-7.6-6.6,7.6H.5l8.6-9.9L0,.8h7.6l5.2,6.9L18.9.8ZM17.6,20.3h2L6.5,2.8h-2.2l13.3,17.4Z"/>
    </g>
  </g>
</svg>
